icons/System/download-fill.svg

<svg xmlns="http://www.w3.org/2000/svg" viewBox="0 0 24 24">
    <g>
        <path fill="none" d="M0 0h24v24H0z"/>
        <path d="M3 19h18v2H3v-2zM13 9h7l-8 8-8-8h7V1h2v8z"/>
    </g>
</svg>

<svg viewBox="0 0 24 24" xmlns="http://www.w3.org/2000/svg"><path d="M3 19H21V21H3V19ZM13 9H20L12 17L4 9H11V1H13V9Z"/></svg>
